svgs/sharp-regular/laptop-medical.svg

<svg xmlns="http://www.w3.org/2000/svg" viewBox="0 0 640 512"><!--! Font Awesome Pro 6.6.0 by @fontawesome - https://fontawesome.com License - https://fontawesome.com/license (Commercial License) Copyright 2024 Fonticons, Inc. --><path d="M112 80l416 0 0 240 48 0 0-240 0-48-48 0L112 32 64 32l0 48 0 240 48 0 0-240zM51.9 400l536.2 0-32 32L83.9 432l-32-32zM640 416l0-16 0-48-48 0L48 352 0 352l0 48 0 16 64 64 512 0 64-64zM288 128l0 64-64 0 0 64 64 0 0 64 64 0 0-64 64 0 0-64-64 0 0-64-64 0z"/></svg>

<svg xmlns="http://www.w3.org/2000/svg" viewBox="0 0 640 512"><!--! Font Awesome Pro 6.4.0 by @fontawesome - https://fontawesome.com License - https://fontawesome.com/license (Commercial License) Copyright 2023 Fonticons, Inc. --><path d="M112 80H528V320h48V80 32H528 112 64V80 320h48V80zM51.9 400H588.1l-32 32H83.9l-32-32zM640 416V400 352H592 48 0v48 16l64 64H576l64-64zM288 128v64H224v64h64v64h64V256h64V192H352V128H288z"/></svg>
